icons/cross-square.svg

<svg width="24" height="24" viewBox="0 0 24 24" fill="none" xmlns="http://www.w3.org/2000/svg">
<path fill-rule="evenodd" clip-rule="evenodd" d="M9 3.75C6.11421 3.75 3.75 6.11421 3.75 9V15C3.75 17.8858 6.11421 20.25 9 20.25H15C17.8858 20.25 20.25 17.8858 20.25 15V9C20.25 6.11421 17.8858 3.75 15 3.75H9ZM2.25 9C2.25 5.28579 5.28579 2.25 9 2.25H15C18.7142 2.25 21.75 5.28579 21.75 9V15C21.75 18.7142 18.7142 21.75 15 21.75H9C5.28579 21.75 2.25 18.7142 2.25 15V9ZM9.2696 9.26966C9.56249 8.97676 10.0374 8.97676 10.3303 9.26966L11.9499 10.8893L13.5696 9.26966C13.8625 8.97676 14.3374 8.97676 14.6302 9.26966C14.9231 9.56255 14.9231 10.0374 14.6302 10.3303L13.0106 11.95L14.6302 13.5697C14.9231 13.8626 14.9231 14.3374 14.6302 14.6303C14.3374 14.9232 13.8625 14.9232 13.5696 14.6303L11.9499 13.0106L10.3303 14.6303C10.0374 14.9232 9.56249 14.9232 9.2696 14.6303C8.9767 14.3374 8.9767 13.8626 9.2696 13.5697L10.8893 11.95L9.2696 10.3303C8.9767 10.0374 8.9767 9.56255 9.2696 9.26966Z" fill="black"/>
</svg>

<svg xmlns="http://www.w3.org/2000/svg" fill="none" viewBox="0 0 24 24">
  <path fill="#000" fill-rule="evenodd" d="M9 3.75C6.114 3.75 3.75 6.114 3.75 9v6c0 2.886 2.364 5.25 5.25 5.25h6c2.886 0 5.25-2.364 5.25-5.25V9c0-2.886-2.364-5.25-5.25-5.25H9ZM2.25 9c0-3.714 3.036-6.75 6.75-6.75h6c3.714 0 6.75 3.036 6.75 6.75v6c0 3.714-3.036 6.75-6.75 6.75H9c-3.714 0-6.75-3.036-6.75-6.75V9Zm7.02.27a.75.75 0 0 1 1.06 0l1.62 1.62 1.62-1.62a.75.75 0 1 1 1.06 1.06l-1.62 1.62 1.62 1.62a.75.75 0 1 1-1.06 1.06l-1.62-1.62-1.62 1.62a.75.75 0 0 1-1.06-1.06l1.62-1.62-1.62-1.62a.75.75 0 0 1 0-1.06Z" clip-rule="evenodd"/>
</svg>
